X:1
T:Title
L:1/8
M:6/8
K:Ab
V:1 treble nm="Church Organ, Staff"
V:1
 E E2 c B2 | c A2- A/ z/ E2 | E F2 d A2 | B c2- c c2 | c e2 d c2 | B A2- A/ z/ c2 | ccB GBA | %7
w: By~H.~A.~Farnsworth * * *|||||||
 F E2- E E2 | E E2 d c2 | B A2- A/ z/ E2 | E F2 e d2 | c B2- B B2 | c d2 f e2 | d c2 e A2 | %14
w: |||||||
 dc=D E B2 | c A2- A A2 |] %16
w: ||

